svg/picture_in_picture_top_right_outline.svg

<svg xmlns="http://www.w3.org/2000/svg" viewBox="0 0 24 24"><path d="M19 7h-8v6h8zm-2 4h-4V9h4zm4-8H3a2 2 0 0 0-2 2v14a2 2 0 0 0 2 2h18a2 2 0 0 0 2-2V5c0-1.09-.9-2-2-2m0 16H3V5h18z"/></svg>

<?xml version="1.0" encoding="UTF-8"?><!DOCTYPE svg PUBLIC "-//W3C//DTD SVG 1.1//EN" "http://www.w3.org/Graphics/SVG/1.1/DTD/svg11.dtd"><svg xmlns="http://www.w3.org/2000/svg" xmlns:xlink="http://www.w3.org/1999/xlink" version="1.1" id="mdi-picture-in-picture-top-right-outline" width="24" height="24" viewBox="0 0 24 24"><path d="M19,7H11V13H19V7M17,11H13V9H17V11M21,3H3A2,2 0 0,0 1,5V19C1,20.11 1.9,21 3,21H21A2,2 0 0,0 23,19V5C23,3.91 22.1,3 21,3M21,19H3V5H21V19Z" /></svg>
